svgs/sharp-solid/upload.svg

<svg xmlns="http://www.w3.org/2000/svg" viewBox="0 0 512 512"><!--! Font Awesome Pro 6.6.0 by @fontawesome - https://fontawesome.com License - https://fontawesome.com/license (Commercial License) Copyright 2024 Fonticons, Inc. --><path d="M288 352l0 32-64 0 0-32 0-226.7-65.4 65.4L136 213.3 90.7 168l22.6-22.6 120-120L256 2.7l22.6 22.6 120 120L421.3 168 376 213.3l-22.6-22.6L288 125.3 288 352zm32 64l0-64 192 0 0 160L0 512 0 352l192 0 0 64 128 0zm112 40a24 24 0 1 0 0-48 24 24 0 1 0 0 48z"/></svg>

<svg xmlns="http://www.w3.org/2000/svg" viewBox="0 0 512 512"><!--! Font Awesome Pro 6.4.0 by @fontawesome - https://fontawesome.com License - https://fontawesome.com/license (Commercial License) Copyright 2023 Fonticons, Inc. --><path d="M288 352v32H224V352 125.3l-65.4 65.4L136 213.3 90.7 168l22.6-22.6 120-120L256 2.7l22.6 22.6 120 120L421.3 168 376 213.3l-22.6-22.6L288 125.3V352zm32 64V352H512V512H0V352H192v64H320zm112 40a24 24 0 1 0 0-48 24 24 0 1 0 0 48z"/></svg>
